svgs/bergfex.svg

<svg width="192" height="192" viewBox="0 0 192 192" fill="none" xmlns="http://www.w3.org/2000/svg">
<path d="M80.0784 102.612L74.0841 93.2419L22 139.758H50.684M80.0784 102.612L50.684 139.758M80.0784 102.612L109.842 65L128.243 93.1719M50.684 139.758L41.4816 151.387L52.875 168L101.5 154L80.0784 147.5L87.1905 139.758M128.243 93.1719L128.288 93.2419L87.1905 139.758M128.243 93.1719L132.672 88.1461L170 139.758H87.1905M128.243 93.1719L87.1905 139.758" stroke="black" stroke-width="12" stroke-linecap="round" stroke-linejoin="round"/>
<path d="M93 53.1982L81.3788 53.1982M81.3788 53.1982L42.5917 53.1982M81.3788 53.1982L83.838 48.7117L85.0677 46.4684M81.3788 53.1982L83.8378 57.6848L85.0674 59.928M42.5917 53.1982L31 53.1982M42.5917 53.1982L42.6212 53.2521L40.162 57.7386L38.9323 59.9819M42.5917 53.1982L40.1472 48.7386L38.925 46.5088" stroke="black" stroke-width="8" stroke-linecap="round" stroke-linejoin="round"/>
<path d="M77.5233 80.0585L71.7126 69.9942M71.7126 69.9942L52.3191 36.4036M71.7126 69.9942L76.8277 69.8807L79.3853 69.824M71.7126 69.9942L69.0567 74.3671L67.7287 76.5535M52.3191 36.4036L46.5233 26.3649M52.3191 36.4036L52.2872 36.4561L47.1722 36.5696L44.6146 36.6263M52.3191 36.4036L54.959 32.0568L56.279 29.8834" stroke="black" stroke-width="8" stroke-linecap="round" stroke-linejoin="round"/>
<path d="M46.4766 80.0585L52.2872 69.9942M52.2872 69.9942L71.6808 36.4036M52.2872 69.9942L47.1721 69.8807L44.6146 69.824M52.2872 69.9942L54.9432 74.3671L56.2711 76.5535M71.6808 36.4036L77.4766 26.3649M71.6808 36.4036L71.7126 36.4561L76.8277 36.5696L79.3853 36.6263M71.6808 36.4036L69.0409 32.0568L67.7209 29.8834" stroke="black" stroke-width="8" stroke-linecap="round" stroke-linejoin="round"/>
</svg>

<svg width="192" height="192" viewBox="0 0 192 192" fill="none" xmlns="http://www.w3.org/2000/svg"><path d="m80.078 102.612-5.994-9.37L22 139.758h28.684m29.394-37.146-29.394 37.146m29.394-37.146L109.842 65l18.401 28.172m-77.559 46.586-9.202 11.629L52.875 168l48.625-14-21.422-6.5 7.112-7.742m41.053-46.586.045.07-41.098 46.516m41.053-46.586 4.429-5.026L170 139.758H87.19m41.053-46.586-41.052 46.586" stroke="#000" stroke-width="12" stroke-linecap="round" stroke-linejoin="round"/><path d="M93 53.198H81.379m0 0H42.592m38.787 0 2.459-4.486 1.23-2.244m-3.69 6.73 2.46 4.487 1.23 2.243m-42.476-6.73H31m11.592 0 .03.054-2.46 4.487-1.23 2.243m3.66-6.784-2.445-4.46-1.222-2.23M77.523 80.058l-5.81-10.064m0 0-19.394-33.59m19.394 33.59 5.115-.113 2.557-.057m-7.672.17-2.656 4.373-1.328 2.186m-15.41-40.15-5.796-10.038m5.796 10.039-.032.052-5.115.114-2.557.056m7.704-.222 2.64-4.347 1.32-2.174M46.477 80.058l5.81-10.064m0 0 19.394-33.59m-19.394 33.59-5.115-.113-2.557-.057m7.672.17 2.656 4.373 1.328 2.186m15.41-40.15 5.796-10.038M71.68 36.404l.032.052 5.115.114 2.557.056m-7.704-.222-2.64-4.347-1.32-2.174" stroke="#000" stroke-width="8" stroke-linecap="round" stroke-linejoin="round"/></svg>
